packages/styles/assets/img/shared/flags/1x1/bs.svg

<svg xmlns="http://www.w3.org/2000/svg" height="512" width="512" viewBox="0 0 512 512"><defs><clipPath id="a"><path fill-opacity=".67" d="M56.618 26.364h480.31v480.31h-480.31z"/></clipPath></defs><g fill-rule="evenodd" clip-path="url(#a)"><path fill="#fff" d="M994.997 511.961h-1045.341v-510.602h1045.341z"/><path fill="#ffe900" d="M994.997 367.265h-1045.341v-214.808h1045.341z"/><path fill="#08ced6" d="M994.997 511.961h-1045.341v-170.197h1045.341zm0-340.256h-1045.341v-170.197h1045.341z"/><path d="M-50.84-.528c2.321 0 418.266 252.847 418.266 252.847l-419.428 258.79 1.157-511.637z"/></g></svg>

<svg xmlns="http://www.w3.org/2000/svg" width="512" height="512" viewBox="0 0 512 512">
	<path fill="#FFE900" d="M995,367.3H-50.3V152.5H995V367.3z"/>
	<path fill="#08CED6" d="M995,512H-50.3V341.8H995V512z M995,171.7H-50.3V1.5H995V171.7z"/>
	<path fill="#000000" d="M-50.8-0.5c2.3,0,418.3,252.8,418.3,252.8L-52,511.1L-50.8-0.5L-50.8-0.5z"/>
</svg>
